!!!COM: Honegger, Arthur
!!!OTL: Symphony No. 2 for String Orchestra and Trumpet (ad lib.)
!!!OMV: III: Vivace, non troppo
!!!example: 607
!!!work: Hon-35
**kern	**kern	**kern	**kern	**dynam	**kern	**dynam
*part5	*part4	*part3	*part2	*part2	*part1	*part1
*staff5	*staff4	*staff3	*staff2	*	*staff1	*
*I"Contrabass	*I"Violoncello	*I"Viola	*I"Violin II	*	*I"Violin I	*
*I'Cb.	*I'Vc.	*I'Vla.	*I'Vln. II	*	*I'Vln. I	*
*clefF4	*clefF4	*clefC3	*clefG2	*	*clefG2	*
*k[]	*k[]	*k[]	*k[]	*	*k[]	*
*C:	*C:	*C:	*C:	*	*C:	*
*M6/8	*M6/8	*M6/8	*M6/8	*	*M6/8	*
=65	=	=	=	=	=	=
8AA#X^L	8BB-X^L 8G	8c#X^L 8en	8GL	.	8f^L	.
8C#X^J	8C#X^J	8c#^J 8en	8G#X	.	8f^J	.
8r	8r	8r	8AJ	.	8r	.
!LO:TX:t=dim.	!LO:TX:t=dim.	!LO:TX:t=dim.	!LO:TX:t=dim.	!	!	!
4r	4r	4r	8c#XL	.	4.r	.
.	.	.	8e	.	.	.
8GGG#X	8GG#X	8A-X 8e 8fn	8fnJ	.	.	.
=66	=66	=66	=66	=66	=66	=66
8DDn	8Dn	8A-X 8e 8fn	8eL	.	2.r	.
8r	8r	8r	8c#X	.	.	.
8r	8r	8r	8AJ	.	.	.
8r	8r	8r	8G#XL	.	.	.
8FFF#XL	8FF#XL	8G#XL 8A- 8c#X	8F##X	.	.	.
8EEJ	8EJ	8G#J 8A- 8c#	8G#J	.	.	.
=67	=67	=67	=67	=67	=67	=67
4r	4r	4.r	8AL	.	2.r	.
.	.	.	8c#X	.	.	.
8r	8r	.	8eJ	.	.	.
8AAA#XL	8AA#XL	8c#XL 8e-X 8f	8fnL	.	.	.
8CC#XJ	8C#XJ	8c#J 8e- 8f	8e	.	.	.
8r	8r	8r	8c#J	.	.	.
=68	=68	=68	=68	=68	=68	=68
4r	4r	4r	8AL	.	2.r	.
.	.	.	8G#X	.	.	.
8GGG#X	8GG#X	8G#X 8e 8f	8F##XJ	.	.	.
8DDn	8Dn	8G# 8e 8f	8G#L	.	.	.
8r	8r	8r	8A	.	.	.
8r	8r	8r	8c#XJ	.	.	.
=69	=69	=69	=69	=69	=69	=69
8r	8r	8r	8eL	p	(2.ee	p
8FFF#XL	8FF#XL	8G#XL 8A-X 8c#X	8fn	.	.	.
8EEJ	8EJ	8G#J 8A- 8c#	8eJ	.	.	.
4r	4r	4.r	8c#XL	.	.	.
.	.	.	8A	.	.	.
8r	8r	.	8G#XJ	.	.	.
=70	=70	=70	=70	=70	=70	=70
!!linebreak:original
8AAA#XL	8AA#XL	8c#XL 8e-X 8f	8F##XL	.	[2.cc#X)	.
8CC#XJ	8C#XJ	8c#J 8e- 8f	8G#X	.	.	.
8r	8r	8r	8AJ	.	.	.
4r	4r	4r	8c#XL	.	.	.
.	.	.	8e	.	.	.
8GGG#X	8GG#X	8G#X 8en 8f	8fnJ	.	.	.
=71	=71	=71	=71	=71	=71	=71
8DDn	8Dn	8G#X 8e 8f	8enL	.	(4.cc#]	.
8r	8r	8r	8c#X	.	.	.
8r	8r	8r	8AJ	.	.	.
8r	8r	8r	8G#XL	.	4.ee)	.
8FFF#XL	8FF#XL	8G#L 8A-X 8c#X	8F##X	.	.	.
8EEJ	8EJ	8G#J 8A- 8c#	8G#J	.	.	.
=72	=72	=72	=72	=72	=72	=72
4r	4r	4.r	8AL	.	([4.cc#X	.
.	.	.	8c#X	.	.	.
8r	8r	.	8eJ	.	.	.
8AAA#XL	8AA#XL	8c#XL 8e-X 8f	8fnL	.	4cc#]	.
8CC#XJ	8C#XJ	8c#J 8e- 8f	8en	.	.	.
8r	8r	8r	8c#J	.	8ee)	.
=73	=73	=73	=73	=73	=73	=73
4r	4r	4r	8AL	.	([4.ffn	.
.	.	.	8G#X	.	.	.
8GGG#X	8GG#X	8G#X 8e 8f	8F##XJ	.	.	.
8DDn	8Dn	8G# 8e 8f	8G#L	.	4ffn]	.
8r	8r	8r	8A	.	.	.
8r	8r	8r	8c#XJ	.	8ggn)	.
=74	=74	=74	=74	=74	=74	=74
8r	8r	8r	8eL	.	(4.aa-X	.
8FFF#XL	8FF#XL	8G#XL 8A-X 8c#X	8fn	.	.	.
8EEJ	8EJ	8G#J 8A- 8c#	8enJ	.	.	.
4r	4r	4.r	8c#XL	.	4.gg	.
.	.	.	8A	.	.	.
8r	8r	.	8G#XJ	.	.	.
=75	=75	=75	=75	=75	=75	=75
!!linebreak:original
8AAA#XL	8AA#XL	8c#XL 8e-X 8f	8F##XL	.	4.gg#X	.
8CC#XJ	8C#XJ	8c#J 8e- 8f	8G#X	.	.	.
8r	8r	8r	8AJ	.	.	.
4r	4r	4r	8c#XL	.	4.aan	.
.	.	.	8e	.	.	.
8GGG#X	8GG#X	8G#X 8en 8f	8fnJ	.	.	.
=76	=76	=76	=76	=76	=76	=76
8DDn	8Dn	8G#X 8e 8f	8enL	.	[2.ccc#X	.
8r	8r	8r	8c#X	.	.	.
8r	8r	8r	8AJ	.	.	.
8r	8r	8r	8G#XL	.	.	.
8FFF#XL	8FF#XL	8G#L 8A-X 8c#X	8F##X	.	.	.
8EEJ	8EJ	8G#J 8A- 8c#	8G#J	.	.	.
=77	=77	=77	=77	=77	=77	=77
4r	4r	4.r	8AL	.	4.ccc#])	.
.	.	.	8c#X	.	.	.
8r	8r	.	8eJ	.	.	.
8AAA#XL	8AA#XL	8c#XL 8e-X 8f	8fnL	.	(4.ccc#X	.
8CC#XJ	8C#XJ	8c#J 8e- 8f	8en	.	.	.
8r	8r	8r	8c#J	.	.	.
=78	=78	=78	=78	=78	=78	=78
4r	4r	4r	8AL	.	4.ddd	.
.	.	.	8G#X	.	.	.
8GGG#X	8GG#X	8G#X 8e 8f	8F##XJ	.	.	.
8DDn	8Dn	8G# 8e 8f	8G#L	.	4.ccc#X	.
8r	8r	8r	8A	.	.	.
8r	8r	8r	8c#XJ	.	.	.
=79	=79	=79	=79	=79	=79	=79
8r	8r	8r	8eL	.	4.bb#X	.
8FFF#XL	8FF#XL	8G#XL 8A-X 8c#X	8fn	.	.	.
8EEJ	8EJ	8G#J 8A- 8c#	8enJ	.	.	.
4r	4r	4.r	8c#XL	.	4.ccc#X)	.
.	.	.	8A	.	.	.
8r	8r	.	8G#XJ	.	.	.
==	==	==	==	==	==	==
*-	*-	*-	*-	*-	*-	*-
!!!CDT: 1892/03/10-1955/11/27
!!!CBL: Le Havre, France
!!!CDL: Paris, France
!!!CNT: Swiss, French
!!!AGN: Orchestral; Symphonic
!!!MCN: Sacher, Paul
!!!MDT: 1942/05/18
!!!MGN: Zurich Collegium Musicum
!!!MLC: Zürich, Switzerland
!!!MPD: 1942
!!!MPN:
!!!ODT: 1941
!!!PDT: 1942
!!!excerpt-start-measure: 65
!!!excerpt-end-measure: 79
!!!excerpt-start-time: 1:09
!!!excerpt-end-time: 1:23
!!!EEV: 2020/01/17
!!!system-decoration: [(s1,s2,s3,s4,s5)]
!!!ONB: Converted from MusicXML on 2020/01/17
